assets/images/ui-states/repo/empty.svg

<svg width="87" height="87" viewBox="0 0 87 87" fill="none" xmlns="http://www.w3.org/2000/svg">
<circle cx="43.5983" cy="43.3792" r="43.3792" fill="#23262E"/>
<mask id="mask0" mask-type="alpha" maskUnits="userSpaceOnUse" x="0" y="0" width="87" height="87">
<circle cx="43.4017" cy="43.3792" r="43.3792" fill="#23262E"/>
</mask>
<g mask="url(#mask0)">
<path d="M43.492 33.4077C40.087 31.2999 35.8717 26.1903 41.6941 23.8614C42.3026 23.618 45.7188 22.6337 45.771 23.9373C45.8366 25.5785 45.8816 26.115 44.1504 26.115C41.6899 26.115 38.1236 23.8313 38.0225 21" stroke="#33CB9A" stroke-width="2.01527" stroke-linecap="round" stroke-linejoin="round"/>
<mask id="mask1" mask-type="alpha" maskUnits="userSpaceOnUse" x="16" y="60" width="52" height="16">
<rect width="26.257" height="26.257" transform="matrix(0.957387 -0.288808 0.957387 0.288808 16.8985 68.3535)" fill="#C4C4C4"/>
</mask>
<g mask="url(#mask1)">
<rect x="42.0366" y="41.7769" width="74.2971" height="55.3038" fill="#CBB589"/>
<rect x="-32.2604" y="40.6592" width="74.2971" height="55.3038" fill="#B8A276"/>
</g>
<path d="M42.0366 75.8524L67.1747 68.3501V88.1423L42.0366 95.6445V75.8524Z" fill="#CEB88D"/>
<path d="M42.0366 75.8524L16.8985 68.3501V88.1423L42.0366 95.6445V75.8524Z" fill="#BEAA81"/>
<path d="M42.0366 75.8524L67.1747 68.3501L85.0506 73.8973L59.9125 81.3996L42.0366 75.8524Z" fill="#E6CD9D"/>
<path d="M42.0366 75.8524L16.8985 68.3501L-0.977528 73.8973L24.1606 81.3996L42.0366 75.8524Z" fill="#E6CD9D"/>
<path d="M42.0365 61.0494L67.1746 68.5518L79.4643 55.5023L54.3262 48.0001L42.0365 61.0494Z" fill="#E6CD9D"/>
<path d="M42.0365 61.0494L16.8984 68.5518L7.12247 55.7035L32.2606 48.2012L42.0365 61.0494Z" fill="#E6CD9D"/>
</g>
</svg>

<svg xmlns="http://www.w3.org/2000/svg" fill="none" width="87" height="87" viewBox="0 0 87 87"><circle cx="43.598" cy="43.379" r="43.379" fill="#23262E"/><mask id="a" width="87" height="87" x="0" y="0" mask-type="alpha" maskUnits="userSpaceOnUse"><circle cx="43.402" cy="43.379" r="43.379" fill="#23262E"/></mask><g mask="url(#a)"><path stroke="#33CB9A" stroke-linecap="round" stroke-linejoin="round" stroke-width="2.015" d="M43.492 33.408c-3.405-2.108-7.62-7.218-1.798-9.547.609-.243 4.025-1.227 4.077.076.066 1.641.11 2.178-1.62 2.178-2.461 0-6.027-2.284-6.129-5.115"/><mask id="b" width="52" height="16" x="16" y="60" mask-type="alpha" maskUnits="userSpaceOnUse"><path fill="#C4C4C4" d="M0 0h26.257v26.257H0z" transform="scale(1.35395 .40844) rotate(-45 208.255 68.611)"/></mask><g mask="url(#b)"><path fill="#CBB589" d="M42.037 41.777h74.297v55.304H42.037z"/><path fill="#B8A276" d="M-32.26 40.659h74.297v55.304H-32.26z"/></g><path fill="#CEB88D" d="m42.037 75.852 25.138-7.502v19.792l-25.138 7.502V75.852Z"/><path fill="#BEAA81" d="M42.037 75.852 16.898 68.35v19.792l25.139 7.502V75.852Z"/><path fill="#E6CD9D" d="m42.037 75.852 25.138-7.502 17.876 5.547L59.912 81.4l-17.875-5.548Z"/><path fill="#E6CD9D" d="M42.037 75.852 16.898 68.35-.978 73.897 24.161 81.4l17.876-5.548Zm-.001-14.802 25.139 7.502 12.29-13.05L54.325 48l-12.29 13.05Z"/><path fill="#E6CD9D" d="m42.036 61.05-25.138 7.502-9.776-12.849 25.139-7.502 9.775 12.848Z"/></g></svg>
